X:1
T:Alfeld, LM
T:Alfeld, LM
T:Anonymous, The European Psalmist, 1872
T:Public Domain Courtesy of the Cyber Hymnal™
C:Anonymous, The European Psalmist, 1872
Z:Public Domain
Z:Courtesy of the Cyber Hymnal™
%%score ( 1 2 ) 3 ( 4 5 ) ( 6 7 )
L:1/8
Q:1/4=103
M:4/4
K:G
V:1 treble 
V:2 treble 
V:3 treble 
V:4 treble 
V:5 treble 
V:6 bass 
V:7 bass 
V:1
 G2 | G2 F2 G2 E2 | D2 (DC) B,2 F2 | G2 G2 F2 G2 | F2 (EG) F2 F2 | E2 ^G2 A2 A2 | A2 ^G2 A2 G2 | %7
 G2 F2 G2 G2 | G2 F2 G2 |] %9
V:2
 x2 | x8 | x8 | x8 | x8 | x8 | x8 | x8 | x4 G2 |] %9
V:3
 B2 | (cB) A2 G2 G2 | G2 F2 B2 d2 | d2 e2 d2 B2 | A2 A2 A2 d2 | e2 d2 c2 A2 | =f2 (ed) c2 d2 | %7
 (ed) c2 B2 G2 | e2 (dc) B2 |] %9
V:4
 [Gd]2 | [Ge]2 [DFd]2 [DGB]2 [Ec]2 | [DB]2 A2 G2 [DFA]2 | [DGB]2 [EG^c]2 [DFd]2 [Ge]2 | %4
 [Fd]2 ^c2 [Fd]2 [DFA]2 | [EA]2 [D^GB]2 [CAc]2 [Ac]2 | [=FAB]2 [^GB]2 [CA]2 [DGd]2 | %7
 G2 [CFA]2 [GB]2 [GB]2 | [EGA]2 [FA]2 [B,G]2 |] %9
V:5
 x2 | x8 | x8 | x8 | x2 (EG) x4 | x8 | x2 (ED) x4 | (ED) x6 | x2 (DC) x2 |] %9
V:6
 [G,B,]2 | (CB,) [D,A,]2 G,2 [C,G,]2 | [D,G,]2 z C [G,,D,G,B,]2 D,2 | G,2 E,2 B,2 [G,B,]2 | %4
 A,2 [A,,A,]2 [D,A,]2 D,2 | C,2 B,,2 A,,2 [=F,A,]2 | D,2 E,2 [A,,E,]2 B,,2 | %7
 (C,B,,) A,,2 [G,,B,]2 [E,G,]2 | C,2 D,2 [G,,D,]2 |] %9
V:7
 x2 | C,2 x G,2 x3 | x2 [D,F,]2 x4 | x8 | A,2 x6 | x8 | x8 | x8 | x6 |] %9

